X:1
T:I’ll Be Watching and Waiting for You
T:I’ll Be Watching and Waiting for You
T:Adlai A. Loudy
T:Dona O. Loudy, 1913
T:Public Domain Courtesy of the Cyber Hymnal™
T:Public Domain Courtesy of the Cyber Hymnal™
C:Adlai A. Loudy
Z:Public Domain
Z:Courtesy of the Cyber Hymnal™
%%score ( 1 2 ) ( 3 4 )
L:1/8
Q:1/4=80
M:6/8
K:G
V:1 treble 
V:2 treble 
V:3 bass 
V:4 bass 
V:1
 [DG]/[DB]/ | [Gd][Gd][Ge] [Gd][GB][DG] | [DB][DB][Ec] (BA)[DG]/[CE]/ | %3
w: 1.~When I|get to that ci- ty whose|streets are of gold, * Af- ter|
w: 2.~I shall|walk with my loved ones who’ve|gone on be- fore, * And are|
w: 3.~In that|morn- ing of glo- ry when|Je- sus shall come, * And shall|
 [B,D][B,D][B,D] [^CG][CA][CB] | [DA]3- [DA]2 [DG]/[DB]/ | [Gd][Gd][Ge] [Gd][GB] ([DG]/[DG]/) | %6
w: life and its sor- rows are|thro’; * As I|stand with the cho- rus all *|
w: sing- ing Christ’s sto- ry a-|new; * While I|join their ho- san- nas to~our *|
w: crown for His child- ren the|true; * While the|wick- ed are mourn- ing, and~the *|
 [DB][DB][Ec] [DB][CA][B,G]/[B,E]/ | [B,D][B,E][DG] [GB]<!fermata![GB][FA] | [DG]3- [DG]2 || %9
w: robed in bright glo- ry, I’ll be|watch- ing and wai- ting for|you. *|
w: bless- èd Re- deem- er, I’ll be|watch- ing and wait- ing for|you. *|
w: saved ones re- joic- ing, I’ll be|watch- ing and wait- ing for|you. *|
"^Refrain" B/c/ | d3 B2 G/A/ | B3 G2 [B,G]/[B,E]/ | [B,D][B,D][B,D] [DG][DA][DB] | %13
w: ||||
w: I’ll be|watch- ing, I’ll be|wait- ing, While the|Sav- ior is crown- ing the|
w: ||||
 [GB][DA][EG] !fermata![FA]2 B/c/ | d3 B2 B/B/ | c3 !fermata!e2 [Ge]/[Ge]/ | %16
w: |||
w: faith- ful and true; I’ll be|watch- ing, I’ll be|wait- ing, I’ll be|
w: |||
 [Gd][GB]G [GB]<[GB][FA] | [DG]3- [DG]2 |] %18
w: ||
w: watch- ing and wait- ing for|you. *|
w: ||
V:2
 x | x6 | x3 D2 x | x6 | x6 | x6 | x6 | x6 | x5 || x | (GGG) (G<G) x | (GGG) (D<D) x | x6 | x6 | %14
 (GGG) (G<G) x | (GGG) (G<G) x | x2 G x3 | x5 |] %18
V:3
 [G,B,]/[G,B,]/ | [G,B,][G,B,][G,C] [G,B,][G,D][G,B,] | %2
w: ~ ~|~ ~ ~ ~ ~ ~|
 [G,,G,][G,,G,][G,,G,] ([G,,G,][A,,F,])[B,,G,]/[C,G,]/ | [D,G,][D,G,][D,G,] [E,G,][E,G,][A,,G,] | %4
w: ~ ~ ~ ~ * ~ ~|~ ~ ~ ~ ~ ~|
 [D,F,]3- [D,F,]2 [G,B,]/[G,B,]/ | [G,B,][G,B,][G,C] [G,B,][G,D] ([G,B,]/[G,B,]/) | %6
w: ~ * ~ ~|~ ~ ~ ~ ~ ~ *|
 [G,,G,][G,,G,][C,G,] [D,G,][D,F,][E,G,]/[E,G,]/ | G,[E,G,][B,,G,] [D,D]<!fermata![D,D][D,C] | %8
w: ~ ~ ~ ~ ~ ~ ~|~ ~ ~ ~ ~ ~|
 [G,,B,]3- [G,,B,]2 || z | [G,,B,][B,,B,][D,B,] [G,D]<[G,D] z | %11
w: ~ *||watch- ing and wait- ing,|
 [G,D][G,D][G,D] [G,B,]<[G,B,][G,,G,]/[G,,G,]/ | [G,,G,][G,,G,][G,,G,] [B,,G,][D,F,]G, | %13
w: watch- ing and wait- ing, ~ ~|~ ~ ~ ~ ~ ~|
 [G,D][F,D][E,^C] !fermata![D,D]2 z | [G,,B,][B,,B,][D,B,] [G,D]<[G,D] z | %15
w: ~ ~ ~ ~|watch- ing and wait- ing,|
 [C,E][C,E][C,E] [C,C]<!fermata![C,C][E,B,]/[E,B,]/ | [G,B,][G,D][B,,D] [D,D]<!fermata![D,D][D,C] | %17
w: ||
 [G,,B,]3- [G,,B,]2 |] %18
w: |
V:4
 x | x6 | x6 | x6 | x6 | x6 | x6 | G, x5 | x5 || x | x6 | x6 | x5 G, | x6 | x6 | x6 | x6 | x5 |] %18

